X: 13
T: An Dro 5
M: C|
L: 1/8
B: Dave Shepherd "Breton Dance 7 Tune Book"
K: Am
|: "Am"A2e2 e2e2 | "G"d2c2 B2cB | "Am"A2e2 e2e2 | "G"d2c2 B4 :|
|: "Am"ABcA "G"B2Bc | "G"d2ed "Am"c2"E7"B2 | "Am"ABcA "G"B2dc | "E7"B2c2 "Am"A4 :|
%%sep 1 1 500
